webroot/css/img/new-desgin/ant-design_youtube-outlined.svg

<svg width="32" height="32" viewBox="0 0 32 32" fill="none" xmlns="http://www.w3.org/2000/svg">
<g id="ant-design:youtube-outlined">
<path id="Vector" d="M30 15.9133C30 15.8445 30 15.7664 29.9969 15.6758C29.9938 15.4227 29.9875 15.1383 29.9813 14.8352C29.9563 13.9633 29.9125 13.0945 29.8438 12.2758C29.75 11.1477 29.6125 10.207 29.425 9.50078C29.2271 8.76375 28.8393 8.09156 28.3002 7.5514C27.7612 7.01123 27.0898 6.62202 26.3531 6.42266C25.4688 6.18516 23.7375 6.03828 21.3 5.94766C20.1406 5.90391 18.9 5.87578 17.6594 5.86016C17.225 5.85391 16.8219 5.85078 16.4594 5.84766H15.5406C15.1781 5.85078 14.775 5.85391 14.3406 5.86016C13.1 5.87578 11.8594 5.90391 10.7 5.94766C8.2625 6.04141 6.52812 6.18828 5.64687 6.42266C4.91 6.62153 4.23834 7.01058 3.6992 7.55082C3.16006 8.09106 2.77238 8.76351 2.575 9.50078C2.38438 10.207 2.25 11.1477 2.15625 12.2758C2.0875 13.0945 2.04375 13.9633 2.01875 14.8352C2.00937 15.1383 2.00625 15.4227 2.00312 15.6758C2.00312 15.7664 2 15.8445 2 15.9133V16.0883C2 16.157 2 16.2352 2.00312 16.3258C2.00625 16.5789 2.0125 16.8633 2.01875 17.1664C2.04375 18.0383 2.0875 18.907 2.15625 19.7258C2.25 20.8539 2.3875 21.7945 2.575 22.5008C2.975 23.9977 4.15 25.1789 5.64687 25.5789C6.52812 25.8164 8.2625 25.9633 10.7 26.0539C11.8594 26.0977 13.1 26.1258 14.3406 26.1414C14.775 26.1477 15.1781 26.1508 15.5406 26.1539H16.4594C16.8219 26.1508 17.225 26.1477 17.6594 26.1414C18.9 26.1258 20.1406 26.0977 21.3 26.0539C23.7375 25.9602 25.4719 25.8133 26.3531 25.5789C27.85 25.1789 29.025 24.0008 29.425 22.5008C29.6156 21.7945 29.75 20.8539 29.8438 19.7258C29.9125 18.907 29.9563 18.0383 29.9813 17.1664C29.9906 16.8633 29.9938 16.5789 29.9969 16.3258C29.9969 16.2352 30 16.157 30 16.0883V15.9133ZM27.75 16.0758C27.75 16.1414 27.75 16.2133 27.7469 16.2977C27.7438 16.5414 27.7375 16.8102 27.7313 17.1008C27.7094 17.932 27.6656 18.7633 27.6 19.5352C27.5156 20.5414 27.3969 21.3664 27.25 21.9195C27.0562 22.6414 26.4875 23.2133 25.7687 23.4039C25.1125 23.5789 23.4594 23.7195 21.2125 23.8039C20.075 23.8477 18.85 23.8758 17.6281 23.8914C17.2 23.8977 16.8031 23.9008 16.4469 23.9008H15.5531L14.3719 23.8914C13.15 23.8758 11.9281 23.8477 10.7875 23.8039C8.54063 23.7164 6.88437 23.5789 6.23125 23.4039C5.5125 23.2102 4.94375 22.6414 4.75 21.9195C4.60313 21.3664 4.48438 20.5414 4.4 19.5352C4.33438 18.7633 4.29375 17.932 4.26875 17.1008C4.25938 16.8102 4.25625 16.5383 4.25313 16.2977C4.25313 16.2133 4.25 16.1383 4.25 16.0758V15.9258C4.25 15.8602 4.25 15.7883 4.25313 15.7039C4.25625 15.4602 4.2625 15.1914 4.26875 14.9008C4.29063 14.0695 4.33438 13.2383 4.4 12.4664C4.48438 11.4602 4.60313 10.6352 4.75 10.082C4.94375 9.36016 5.5125 8.78828 6.23125 8.59766C6.8875 8.42266 8.54063 8.28203 10.7875 8.19766C11.925 8.15391 13.15 8.12578 14.3719 8.11016C14.8 8.10391 15.1969 8.10078 15.5531 8.10078H16.4469L17.6281 8.11016C18.85 8.12578 20.0719 8.15391 21.2125 8.19766C23.4594 8.28516 25.1156 8.42266 25.7687 8.59766C26.4875 8.79141 27.0562 9.36016 27.25 10.082C27.3969 10.6352 27.5156 11.4602 27.6 12.4664C27.6656 13.2383 27.7063 14.0695 27.7313 14.9008C27.7406 15.1914 27.7438 15.4633 27.7469 15.7039C27.7469 15.7883 27.75 15.8633 27.75 15.9258V16.0758ZM13.2188 20.1883L20.4688 15.9695L13.2188 11.8133V20.1883Z" fill="white"/>
</g>
</svg>

<svg width="32" height="32" fill="none" xmlns="http://www.w3.org/2000/svg"><path d="M30 15.913c0-.069 0-.147-.003-.237-.003-.253-.01-.538-.016-.84a47.1 47.1 0 0 0-.137-2.56c-.094-1.128-.232-2.069-.419-2.775a4.36 4.36 0 0 0-3.072-3.078c-.884-.238-2.616-.385-5.053-.475-1.16-.044-2.4-.072-3.64-.088-.435-.006-.838-.01-1.2-.012h-.92c-.362.003-.765.006-1.2.012-1.24.016-2.48.044-3.64.088-2.438.093-4.172.24-5.053.475A4.355 4.355 0 0 0 2.575 9.5c-.19.706-.325 1.647-.419 2.775a47.05 47.05 0 0 0-.137 2.56c-.01.302-.013.587-.016.84 0 .09-.003.168-.003.237v.175c0 .069 0 .147.003.238.003.253.01.537.016.84.025.872.068 1.741.137 2.56.094 1.128.232 2.069.419 2.775a4.355 4.355 0 0 0 3.072 3.078c.881.237 2.615.384 5.053.475 1.16.044 2.4.072 3.64.087.435.007.838.01 1.2.013h.92c.362-.003.765-.006 1.2-.013 1.24-.015 2.48-.043 3.64-.087 2.438-.094 4.172-.24 5.053-.475a4.35 4.35 0 0 0 3.072-3.078c.19-.707.325-1.647.419-2.775.069-.819.112-1.688.137-2.56.01-.303.013-.587.016-.84 0-.09.003-.169.003-.238v-.175Zm-2.25.163c0 .065 0 .137-.003.222-.003.243-.01.512-.016.803a42.301 42.301 0 0 1-.131 2.434c-.084 1.006-.203 1.831-.35 2.384a2.103 2.103 0 0 1-1.481 1.485c-.656.175-2.31.316-4.556.4a141.615 141.615 0 0 1-4.766.097h-.894l-1.181-.01a141.974 141.974 0 0 1-3.585-.087c-2.246-.088-3.903-.225-4.556-.4a2.108 2.108 0 0 1-1.481-1.485c-.147-.553-.266-1.378-.35-2.384a45.275 45.275 0 0 1-.131-2.434c-.01-.29-.013-.563-.016-.803 0-.085-.003-.16-.003-.222v-.15c0-.066 0-.138.003-.222.003-.244.01-.513.016-.803.022-.832.065-1.663.131-2.435.084-1.006.203-1.83.35-2.384a2.103 2.103 0 0 1 1.481-1.484c.657-.175 2.31-.316 4.556-.4a141.944 141.944 0 0 1 4.766-.097h.894l1.181.01c1.222.015 2.444.043 3.584.087 2.247.087 3.904.225 4.557.4a2.108 2.108 0 0 1 1.481 1.484c.147.553.266 1.378.35 2.384.066.772.106 1.604.131 2.435.01.29.013.562.016.803 0 .084.003.16.003.222v.15Zm-14.531 4.112 7.25-4.218-7.25-4.157v8.375Z" fill="#fff"/></svg>
